X: 18891
T: In The Stream
R: jig
M: 6/8
K: Dmajor
|:DAd efA|BAG GAD|DAd efa|abd eag|
fAd efA|BAG GAD|EFG ADd|FGE EDD:|
|:dag fdA|GAd FED|dag fdA|Bda abf|
dag fdA|GAd eed|FFG ADd|FGE EDD:|

